X:16
T:Det lysnet i skogen
C:Sigurd Islandsmoen / Jrgen Moe
N:
O:Norge - Norway - Norvge
Z:<anamnese@laposte.net> -- http://anamnese.fr.st
M:C
L:1/8
Q:1/4=115
K:G
D | "G"(B>B) "D"AB "G"G2 "C"FE | "D"D2 DC "G"B,3 D/-D/ | "C"(CD) DF "G"G>G AF | "A"E2"D"D4 zD |
"G"B>B "D"AB "Em"G2 "C"FE | "D"D>D DC "G"B,3 B, | "Am"(CD) DF "G"G>G AF | "D"F2"G"G4 z B |
"G"d>d Bc d2 BG | "D"A>G Ac "G"B3 B | "Em"B>A GE "G/B"D2 GB | "Am"(A>^G) A^A "B"B3 D |
"C"G>G FE "Am"B>B GA | "D7"F2 "G"G4 z |]
W:Det lysnet i skogen, da ilte jeg frem. 
W:Snart stod jeg hvor bakke stupet skrnet.
W:Jeg s den vide bygd, og jeg s mitt kjre hjem, 
W:jeg s de brede fjorder der skar seg inn i bukt, 
W:og elven s jeg blinke og krumme seg s smukt. 
W:Jeg lentes til de sollyse sletter.
W: /.../
